brandFactory_export/1.Light/Documento_Archivo PPT_1Light.svg

<?xml version="1.0" encoding="UTF-8"?>
<svg width="24px" height="24px" viewBox="0 0 24 24" version="1.1" xmlns="http://www.w3.org/2000/svg" xmlns:xlink="http://www.w3.org/1999/xlink">
    <title>1.Light/Documento_Archivo PPT_1Light</title>
    <g id="Symbols" stroke="none" stroke-width="1" fill="none" fill-rule="evenodd">
        <g id="1.Light/Documento_Archivo-PPT_1Light" fill="#5CB615" fill-rule="nonzero">
            <path d="M16.3092437,-2.66453526e-13 C16.5277311,-2.66453526e-13 16.7327731,0.0840336134 16.8907563,0.235294118 L23.3815126,6.51764706 C23.4857143,6.62184874 23.5462185,6.75966387 23.5831933,6.90756303 C23.610084,6.96806723 23.6235294,7.03529412 23.6235294,7.10252101 L23.6235294,22.1781513 C23.6235294,22.9613445 22.9478992,23.6235294 22.1478992,23.6235294 L7.22352941,23.6235294 C6.43697479,23.6235294 5.74789916,22.9478992 5.74789916,22.1781513 L5.79159664,18.5344538 L2.72268908,18.5344538 C1.22352941,18.5344538 0.00336134409,17.3142857 0.00336134409,15.8117647 L0.00336134409,10.7966387 C0.00336134409,9.29411765 1.22352941,8.07394958 2.72268908,8.07394958 L5.74789916,8.07394958 L5.74789916,1.44537815 C5.74789916,0.68907563 6.45042017,-2.66453526e-13 7.22352941,-2.66453526e-13 L16.3092437,-2.66453526e-13 Z M15.4789916,0.991596639 L7.22016807,0.991596639 C7.00168067,0.991596639 6.73277311,1.24033613 6.73277311,1.44537815 L6.73277311,8.07058824 L14.7798319,8.07058824 C16.2789916,8.07058824 17.4991597,9.2907563 17.4991597,10.7932773 L17.4991597,15.8084034 C17.4991597,17.3109244 16.2789916,18.5310924 14.7798319,18.5310924 L6.77983193,18.5310924 L6.73613445,22.1815126 C6.73613445,22.4 6.9815126,22.6285714 7.22352941,22.6285714 L22.1478992,22.6285714 L22.1478992,22.6319328 C22.3966387,22.6319328 22.6319328,22.410084 22.6319328,22.1781513 L22.6319328,7.91932773 L19.5529412,7.91932773 C18.3764706,7.91932773 17.3613445,7.5394958 16.6218487,6.82016807 C15.8756303,6.09747899 15.4789916,5.10588235 15.4789916,3.95966387 L15.4789916,0.991596639 Z M14.7831933,9.06218487 L2.71932773,9.06218487 C1.76806723,9.06218487 0.991596638,9.83865546 0.991596638,10.7932773 L0.991596638,15.8084034 C0.991596638,16.7630252 1.76470588,17.5394958 2.71932773,17.5394958 L14.7831933,17.5394958 C15.7344538,17.5394958 16.5109244,16.7630252 16.5109244,15.8084034 L16.5109244,10.7932773 C16.5109244,9.83865546 15.7378151,9.06218487 14.7831933,9.06218487 Z M4.51092437,11.1663866 C5.22016807,11.1663866 5.66722689,11.2638655 5.95966387,11.5361345 C6.20504202,11.7613445 6.32268908,12.1109244 6.32268908,12.594958 C6.32268908,13.0789916 6.21176471,13.4420168 5.98655462,13.6941176 C5.7210084,13.9932773 5.31092437,14.1310924 4.71596639,14.1310924 L3.98991597,14.1310924 L3.98991597,15.6907563 L2.95798319,15.6907563 L2.95798319,11.1663866 L4.51092437,11.1663866 Z M8.60840336,11.1663866 C9.31764706,11.1663866 9.76470588,11.2638655 10.0571429,11.5361345 C10.302521,11.7613445 10.4201681,12.1109244 10.4201681,12.594958 C10.4201681,13.0789916 10.3092437,13.4420168 10.0840336,13.6941176 C9.81848739,13.9932773 9.40840336,14.1310924 8.81344538,14.1310924 L8.08739496,14.1310924 L8.08739496,15.6907563 L7.05546218,15.6907563 L7.05546218,11.1663866 L8.60840336,11.1663866 Z M14.6352941,11.1663866 L14.5546218,11.912605 L13.1865546,11.912605 L13.1865546,15.6907563 L12.1546218,15.6907563 L12.1546218,11.912605 L10.7529412,11.912605 L10.7529412,11.1663866 L14.6352941,11.1663866 Z M4.47058823,11.9159664 L3.98655462,11.9159664 L3.98655462,13.3579832 L4.49747899,13.3579832 L4.49747899,13.3546218 C4.82689076,13.3546218 4.96806723,13.307563 5.09915966,13.1831933 C5.21680672,13.0655462 5.27731092,12.8739496 5.27731092,12.6084034 C5.27731092,12.3630252 5.22352941,12.1848739 5.10588235,12.0739496 C4.9815126,11.9630252 4.78991597,11.9159664 4.47058823,11.9159664 Z M8.56806723,11.9159664 L8.08403361,11.9159664 L8.08403361,13.3579832 L8.59495798,13.3579832 L8.59495798,13.3546218 C8.92436975,13.3546218 9.06554622,13.307563 9.19663866,13.1831933 C9.31428571,13.0655462 9.37478992,12.8739496 9.37478992,12.6084034 C9.37478992,12.3630252 9.3210084,12.1848739 9.20336134,12.0739496 C9.0789916,11.9630252 8.88739496,11.9159664 8.56806723,11.9159664 Z M16.4705882,1.21008403 L16.4705882,3.95966387 C16.4705882,4.83361345 16.7596639,5.57647059 17.3109244,6.10756303 C17.8655462,6.64201681 18.6420168,6.92773109 19.5529412,6.92773109 L22.3731092,6.92773109 L16.4705882,1.21008403 Z" id="Documento_Archivo-PPT_1Light"></path>
        </g>
    </g>
</svg>

<svg width="24" height="24" viewBox="0 0 24 24" xmlns="http://www.w3.org/2000/svg"><path d="M16.31 0c.218 0 .423.084.58.235l6.492 6.283a.82.82 0 01.201.39c.027.06.04.127.04.195v15.075c0 .783-.675 1.446-1.475 1.446H7.224c-.787 0-1.476-.676-1.476-1.446l.044-3.644h-3.07c-1.498 0-2.719-1.22-2.719-2.722v-5.015a2.723 2.723 0 012.72-2.723h3.025V1.445C5.748.69 6.45 0 7.224 0h9.085zm-.831.992H7.22c-.218 0-.487.248-.487.453v6.626h8.047c1.499 0 2.72 1.22 2.72 2.722v5.015a2.723 2.723 0 01-2.72 2.723h-8l-.044 3.65c0 .219.246.448.488.448h14.924v.003c.249 0 .484-.222.484-.454V7.92h-3.08c-1.176 0-2.19-.38-2.93-1.099-.746-.723-1.143-1.714-1.143-2.86V.992zm-.696 8.07H2.72c-.95 0-1.727.777-1.727 1.731v5.015a1.73 1.73 0 001.727 1.731h12.064c.951 0 1.728-.776 1.728-1.73v-5.016a1.73 1.73 0 00-1.728-1.73zM4.511 11.166c.71 0 1.156.098 1.449.37.245.225.363.575.363 1.059s-.111.847-.336 1.1c-.266.298-.676.436-1.271.436H3.99v1.56H2.958v-4.525h1.553zm4.097 0c.71 0 1.157.098 1.45.37.245.225.362.575.362 1.059s-.11.847-.336 1.1c-.266.298-.676.436-1.27.436h-.727v1.56H7.055v-4.525h1.553zm6.027 0l-.08.747h-1.368v3.778h-1.032v-3.778h-1.402v-.747h3.882zm-10.164.75h-.484v1.442h.51v-.003c.33 0 .471-.047.602-.172.118-.117.178-.31.178-.575 0-.245-.053-.423-.171-.534-.124-.111-.316-.158-.635-.158zm4.097 0h-.484v1.442h.511v-.003c.33 0 .47-.047.602-.172.117-.117.178-.31.178-.575 0-.245-.054-.423-.172-.534-.124-.111-.316-.158-.635-.158zM16.471 1.21v2.75c0 .874.289 1.616.84 2.148.555.534 1.331.82 2.242.82h2.82L16.471 1.21z" fill="#5CB615" fill-rule="nonzero"/></svg>
